src/images/proffessional.svg

<?xml version="1.0" encoding="UTF-8"?>
<svg width="72px" height="72px" viewBox="0 0 72 72" version="1.1" xmlns="http://www.w3.org/2000/svg" xmlns:xlink="http://www.w3.org/1999/xlink">
    <!-- Generator: Sketch 53 (72520) - https://sketchapp.com -->
    <title>21</title>
    <desc>Created with Sketch.</desc>
    <g id="Marshmello_landing-page" stroke="none" stroke-width="1" fill="none" fill-rule="evenodd">
        <g id="Marshmello_landngpage-Copy" transform="translate(-690.000000, -3554.000000)" fill-rule="nonzero">
            <g id="21" transform="translate(690.000000, 3554.000000)">
                <path d="M29.1323784,47.4238107 L12.178973,30.4351259 C12.0643836,30.3203933 12,30.1647253 12,30.0024015 C12,29.8400777 12.0643836,29.6844097 12.178973,29.5696771 L21.8192979,19.9212806 C23.2064745,18.5691355 23.2392485,16.3468179 21.8925508,14.9541866 L21.7948803,14.8563129 C21.4249966,14.5013202 20.905001,14.3504819 20.4030753,14.4525835 C17.6269146,14.9249214 14.8481134,13.6299925 13.4196329,11.1982806 C12.1285515,8.95125351 12.184948,6.17265256 13.5661386,3.98008987 C14.6696798,2.11973216 16.5603262,0.865937961 18.7004692,0.57522599 C20.8406122,0.284514019 22.9961209,0.988688025 24.5540726,2.48751484 C26.098828,4.05028055 26.7907043,6.26706751 26.4098125,8.43334653 C26.3192204,8.91655162 26.4592359,9.41441463 26.7882858,9.7791109 L26.9225828,9.90145311 C27.5886188,10.5523267 28.4859796,10.9104833 29.4161912,10.8967077 C30.3464029,10.8829322 31.2328102,10.4983595 31.8793619,9.82804779 L41.5199309,0.179039573 C41.758294,-0.0596798578 42.144609,-0.0596798578 42.3829721,0.179039573 L51.718687,9.53442647 C53.0654523,10.9270309 53.0326775,13.1494042 51.6454342,14.5015204 L51.5111372,14.6360969 C51.1510476,14.9832701 50.6496459,15.1416987 50.1559587,15.0642946 C47.951098,14.767747 45.7343797,15.518747 44.1614303,17.0951754 C41.5727457,19.5297916 41.2492633,23.5351365 43.4135649,26.3552157 C45.5778664,29.175295 49.5239846,29.8902352 52.5366777,28.008101 C54.9846966,26.5341648 56.3346395,23.7519088 55.9795637,20.9122525 C55.9028312,20.4005342 56.0648651,19.8818492 56.419081,19.505317 L56.5289603,19.3952091 C57.8782687,18.0050789 60.0960269,17.9722359 61.4857394,19.3218037 L70.8212102,28.6767013 C71.0595966,28.9155884 71.0595966,29.3028959 70.8212102,29.5417831 L44.4300242,56 L29.1323784,47.4238107 Z" id="Shape" fill="#FF5364"></path>
                <path d="M70.3921527,54.7449998 L47.5568242,68.7481813 C46.2203897,69.5674541 44.6858858,70.0005361 43.1213602,69.9999995 L12.2924482,69.9999995 L12,69.9386359 C12.1906321,69.579915 12.2910452,69.1795958 12.2924482,68.7727268 L12.2924482,43 L15.7043436,43 C18.2285382,43.0035541 20.6769881,43.8688202 22.6499878,45.4545454 C24.6229875,47.0402706 27.0714373,47.9055368 29.595632,47.9090908 L35.9685652,47.9090908 C38.1111227,47.9058916 40.0971407,49.0389064 41.1960764,50.8913635 L41.3057444,51.0754544 C42.3446917,52.8243066 42.0683612,55.0609249 40.6355507,56.4999998 L43.4991058,56.4999998 C44.0255046,56.5002726 44.5483519,56.4131975 45.046644,56.2422725 L67.6017097,48.6699999 C68.9668797,48.2185643 70.4659413,48.6922308 71.330424,49.8481817 L71.330424,49.8604544 C71.8969742,50.6179223 72.1182686,51.5817264 71.9394178,52.5128058 C71.760567,53.4438851 71.1983261,54.2550136 70.3921527,54.7449998 Z" id="Shape" fill="#FDD7AD"></path>
                <path d="M41,56 C40.7341312,56.8052423 40.2961644,57.5365948 39.7193545,58.1385309 C39.6778971,58.1790466 39.6339157,58.216647 39.5876993,58.2510848 C39.4022716,58.3937909 39.1827884,58.4803333 38.9533609,58.5012048 L31.0420832,58.5012048 C29.1548054,58.4982624 27.3092817,59.0815649 25.7399713,60.1770083 L24.8542912,60.7898021 C24.4993809,61.0378538 24.044586,61.0685464 23.6620867,60.8702601 C23.2795873,60.6719736 23.0278441,60.275014 23.0021642,59.8296656 C22.9764841,59.3843172 23.1807922,58.9586461 23.5377397,58.7138067 L24.4114512,58.1010129 C26.3733189,56.7290242 28.6813652,55.9976878 31.0420832,56.0000055 L41,56 Z" id="Shape" fill="#F09372"></path>
                <path d="M10.1818182,72 L3.81818182,72 C1.71041776,71.9977771 0.00231472327,70.3574559 0,68.3333333 L0,42.6666667 C0.00231472327,40.6425441 1.71041776,39.0022229 3.81818182,39 L10.1818182,39 C12.2895822,39.0022229 13.9976853,40.6425441 14,42.6666667 L14,68.3333333 C13.9991572,70.3580421 12.2901926,71.9991906 10.1818182,72 Z" id="Shape" fill="#2980BA"></path>
            </g>
        </g>
    </g>
</svg>

<svg width="72" height="72" xmlns="http://www.w3.org/2000/svg"><g fill-rule="nonzero" fill="none"><path d="M29.132 47.424L12.18 30.435a.612.612 0 010-.865l9.64-9.649a3.521 3.521 0 00.074-4.967l-.098-.098a1.56 1.56 0 00-1.392-.403 6.78 6.78 0 01-6.983-3.255 7.002 7.002 0 01.146-7.218 7.07 7.07 0 0110.988-1.493 6.787 6.787 0 011.856 5.946c-.09.484.05.981.378 1.346l.135.122a3.494 3.494 0 004.956-.073L41.52.179a.61.61 0 01.864 0l9.336 9.355a3.521 3.521 0 01-.074 4.968l-.134.134c-.36.347-.861.506-1.355.428a7.126 7.126 0 00-5.995 2.031 6.927 6.927 0 00-.747 9.26 6.893 6.893 0 009.123 1.653 7.234 7.234 0 003.443-7.096 1.688 1.688 0 01.44-1.407l.109-.11a3.503 3.503 0 014.957-.073l9.335 9.355a.613.613 0 010 .865L44.43 56l-15.298-8.576z" fill="#FF5364"/><path d="M70.392 54.745L47.557 68.748A8.48 8.48 0 0143.12 70H12.292L12 69.939c.19-.36.291-.76.292-1.166V43h3.412a11.11 11.11 0 016.946 2.455 11.11 11.11 0 006.946 2.454h6.373a6.07 6.07 0 015.227 2.982l.11.184a4.465 4.465 0 01-.67 5.425h2.863c.527 0 1.05-.087 1.548-.258l22.555-7.572a3.343 3.343 0 013.728 1.178v.012c.567.758.788 1.722.61 2.653a3.35 3.35 0 01-1.548 2.232z" fill="#FDD7AD"/><path d="M41 56a5.649 5.649 0 01-1.28 2.139c-.042.04-.086.078-.132.112-.186.143-.405.23-.635.25h-7.91a9.23 9.23 0 00-5.303 1.676l-.886.613c-.355.248-.81.279-1.192.08a1.248 1.248 0 01-.66-1.04 1.264 1.264 0 01.536-1.116l.873-.613A11.54 11.54 0 0131.042 56H41z" fill="#F09372"/><path d="M10.182 72H3.818C1.71 71.998.002 70.357 0 68.333V42.667C.002 40.643 1.71 39.002 3.818 39h6.364c2.108.002 3.816 1.643 3.818 3.667v25.666C14 70.358 12.29 72 10.182 72z" fill="#2980BA"/></g></svg>
